style-guide/assets/wds-icons-download-tiny.svg

<svg viewBox="0 0 12 12" xmlns="http://www.w3.org/2000/svg">
  <path d="M5.293 7.707l-3-3a.999.999 0 1 1 1.414-1.414L5 4.586V1a1 1 0 1 1 2 0v3.586l1.293-1.293a.999.999 0 1 1 1.414 1.414l-3 3A.993.993 0 0 1 6.003 8h-.006a.988.988 0 0 1-.704-.293zM11 7.75a1 1 0 0 1 1 1V11a1 1 0 0 1-1 1H1a1 1 0 0 1-1-1V8.75a1 1 0 1 1 2 0V10h8V8.75a1 1 0 0 1 1-1z" fill-rule="evenodd"/>
</svg>

<svg xmlns="http://www.w3.org/2000/svg" xmlns:xlink="http://www.w3.org/1999/xlink" width="12" height="12" viewBox="0 0 12 12">
  <defs>
    <path id="download-a" d="M5.293,7.707 L2.293,4.707 C1.902,4.316 1.902,3.684 2.293,3.293 C2.684,2.902 3.316,2.902 3.707,3.293 L5,4.586 L5,1 C5,0.448 5.447,0 6,0 C6.553,0 7,0.448 7,1 L7,4.586 L8.293,3.293 C8.684,2.902 9.316,2.902 9.707,3.293 C10.098,3.684 10.098,4.316 9.707,4.707 L6.707,7.707 C6.61,7.804 6.5,7.876 6.381,7.925 C6.265,7.974 6.137,7.999 6.003,8 L6,8 L5.997,8 C5.863,7.999 5.735,7.974 5.619,7.925 C5.5,7.876 5.39,7.804 5.293,7.707 Z M11,7.75 C11.553,7.75 12,8.198 12,8.75 L12,11 C12,11.552 11.553,12 11,12 L1,12 C0.447,12 -5.99520433e-15,11.552 -5.99520433e-15,11 L-5.99520433e-15,8.75 C-5.99520433e-15,8.198 0.447,7.75 1,7.75 C1.553,7.75 2,8.198 2,8.75 L2,10 L10,10 L10,8.75 C10,8.198 10.447,7.75 11,7.75 Z"/>
  </defs>
  <use fill-rule="evenodd" xlink:href="#download-a"/>
</svg>
